X: 245
T:Magnus es tu, domine
N: Derived from Jos2106-Magnus_es_tu,_domine.krn
C: Josquin des Prez
%%abc-version 2.0
%%abcx-abcm2ps-target-version 5.9.1 (29 Sep 2008)
%%abc-creator hum2abc beta
%%abcx-conversion-date 2019/02/12 16:15:50
%%abc-edited-by Jesse Rodin
%%abc-edited-by Chris Gage 06-11-2012
%%abcx-initial-encoding-date 2012/06/29/
%%humdrum-veritas 3225274368
%%humdrum-veritas-data 3430409611
%%linebreak <none>
%%barnumbers 0
L: 1/4
M: 3/1
Q: 1/2=120
%%staves [1 2 3 4]
V: 1 clef=treble
V: 2 clef=treble-8
V: 3 clef=treble-8
V: 4 clef=bass
K: C
[V:1] E8E4 | 
[V:2] z12 | 
[V:3] z12 | 
[V:4] E,4A,3G,/F,/G,2A,2 | 
[V:1] F8E4 | 
[V:2] z12 | 
[V:3] z12 | 
[V:4] D,3E,F,G,A,3G,G,2 | 
[V:1] D2F3EE4D2 | 
[V:2] z12 | 
[V:3] z4G4A4 | 
[V:4] F,2D,2E,2G,2F,4 | 
[V:1] E3FG2A4^G2 | 
[V:2] z12 | 
[V:3] B2c4BAB4 | 
[V:4] E,4C,2F,2E,4 | 
[V:1] A8z4 | 
[V:2] c4c4c4 | 
[V:3] A4F4G4 | 
[V:4] F,2A,4G,F,E,4 | 
[V:1] z4z4B4 | 
[V:2] d2c3BA4^G2 | 
[V:3] A2G3FE4D2 | 
[V:4] D,2E,3D,C,2B,,4 | 
[V:1] c3B/A/G2B2A4 | 
[V:2] A2c3Be4d2 | 
[V:3] E3FG4A4 | 
[V:4] A,,4z2E,2F,4 | 
[V:1] G4G2A4^G2 | 
[V:2] e4z4e4- | 
[V:3] B2c2B2A2B4 | 
[V:4] E,6A,,2E,4 | 
[V:1] A8A4 | 
[V:2] e2f2e2d2e4 | 
[V:3] A3Bc2d4^c2 | 
[V:4] z2A,2A,2D,2A,4 | 
[V:1] A8A4 | 
[V:2] d2e2c2f4f2 | 
[V:3] d2A4D2A4 | 
[V:4] z2C2C2F,2C4 | 
[V:1] G8G4 | 
[V:2] e4e3d/c/B2c2 | 
[V:3] E4G8 | 
[V:4] B,6E,2E,4 | 
[V:1] F8F4 | 
[V:2] d6cBA2B2 | 
[V:3] A8z4 | 
[V:4] D,8D,4 | 
[V:1] E8E4 | 
[V:2] c4A2B2c4 | 
[V:3] z4z4A4 | 
[V:4] A,,2A,4G,2A,4 | 
[V:1] E2G3FE4D2 | 
[V:2] B4z4z4 | 
[V:3] G3AB2c2A4 | 
[V:4] E,3F,G,2A,2F,4 | 
[V:1] E8z4 | 
[V:2] z2B2cBe4d2 | 
[V:3] B4z4z4 | 
[V:4] E,4z2E,2F,4 | 
[V:1] z12 | 
[V:2] e3d/c/Bc2B/A/G2B2 | 
[V:3] z12 | 
[V:4] E,3F,G,A,2G,/F,/E,2G,2 | 
[V:1] z12 | 
[V:2] A2c2B2A4^G2 | 
[V:3] z12 | 
[V:4] F,2E,3D,C,2B,,4 | 
[V:1] E4E3FG2A2 | 
[V:2] A4z4z4 | 
[V:3] c3B/A/GA2G/F/E2F2 | 
[V:4] A,,4z4z4 | 
[V:1] B2E2z2G2G3A | 
[V:2] z12 | 
[V:3] G2A2B2E2z2E2 | 
[V:4] z12 | 
[V:1] B2c2d2G2c4 | 
[V:2] z12 | 
[V:3] G2A2B2c3BA2 | 
[V:4] z12 | 
[V:1] B2A4^G2A4 | 
[V:2] z4B4c3d | 
[V:3] G2A2E8 | 
[V:4] z4z4A,,4 | 
[V:1] G8F4 | 
[V:2] e4d2c2A3B | 
[V:3] z2G3FE4D2 | 
[V:4] C,4B,,2C,2D,4 | 
[V:1] E4z4z4 | 
[V:2] c2BAG8 | 
[V:3] E8z4 | 
[V:4] A,,4z2C,3B,,C,2 | 
[V:1] z12 | 
[V:2] z2c3Bc2d2e2- | 
[V:3] z12 | 
[V:4] D,2E,3D,E,2F,2E,2 | 
[V:1] z12 | 
[V:2] ede2f2e2c4 | 
[V:3] z12 | 
[V:4] C,4D,2C,2A,,2A,2 | 
[V:1] z12 | 
[V:2] d2c2A2d3c/B/c2 | 
[V:3] z12 | 
[V:4] D,2A,3G,F,E,D,2A,2 | 
[V:1] z12 | 
[V:2] d2e3d/c/d2GA2^G | 
[V:3] z12 | 
[V:4] G,2E,2F,4E,4 | 
[V:1] z2E2E3FG2A2 | 
[V:2] A4z4z4 | 
[V:3] E3FG2A2B2c2 | 
[V:4] A,,4z4z4 | 
[V:1] B2c2BGA2E2zD | 
[V:2] z12 | 
[V:3] BGA2E2zDEG2F- | 
[V:4] z12 | 
[V:1] EG2F2E2DE2zD- | 
[V:2] z12 | 
[V:3] FE2DE2F2E3/C/cB- | 
[V:4] z12 | 
[V:1] DCB,2A,c2B2A2^G | 
[V:2] z12 | 
[V:3] BA2^GA3/=G/AEGAB2 | 
[V:4] z12 | 
[V:1] A4B2c3BA2- | 
[V:2] c4B2e4d2 | 
[V:3] A4z2G2A4 | 
[V:4] A,,4E,4F,4 | 
[V:1] A2^G2A2D=G2^F/E/F2 | 
[V:2] e3dc2B2c3d | 
[V:3] B4A2G2A4 | 
[V:4] E,4z4z4 | 
[V:1] G4z2G2A4 | 
[V:2] e3d/c/d2e2f4 | 
[V:3] G4z2E2A4 | 
[V:4] E,4B,4C4 | 
[V:1] G3AB2c2B2G2 | 
[V:2] e4z4e4 | 
[V:3] E4D2C2G3A | 
[V:4] B,3CD2E2E,3F, | 
[V:1] z2c3Ac3BA2 | 
[V:2] d2c2e4z4 | 
[V:3] B2c2C3DE2F2 | 
[V:4] G,2A,2A,,3B,,C,2D,2 | 
[V:1] G2B3AA4^G2 | 
[V:2] e4e4e4 | 
[V:3] G3AB2c2B4 | 
[V:4] E,3F,G,2A,2E,4 | 
[V:1] A2A,3B,CDE2F2 | 
[V:2] c3de4z2d2 | 
[V:3] A3Bc3B/A/G2F2 | 
[V:4] A,,4A,,3B,,C,2D,2 | 
[V:1] G2A2B2c2A4 | 
[V:2] G2f2e2e4d2 | 
[V:3] E2D2z4D3E/F/ | 
[V:4] E,2F,2G,2A,2F,4 | 
[V:1] G2F3EE4D2 | 
[V:2] e2A2c4A4 | 
[V:3] G2A4G2F4 | 
[V:4] E,2D,2A,,2C,2D,4 | 
[V:1] E12- | 
[V:2] B2c2B2A2B4 | 
[V:3] E12- | 
[V:4] z2A,,2G,,2A,,4G,,2 | 
[V:1] E12 ||  
[V:2] c4B8 ||  
[V:3] E12 ||  
[V:4] A,,4E,8 ||  
[V:1]  [K:C] [K:clef=treble][M:2/1]G8 | 
[V:2]  [K:C] [K:clef=treble-8][M:2/1]e8 | 
[V:3]  [K:C] [K:clef=treble-8][M:2/1]B8 | 
[V:4]  [K:C] [K:clef=bass][M:2/1]E,8 | 
[V:1] G4G4 | 
[V:2] e4e4 | 
[V:3] B4B4 | 
[V:4] E,4E,4 | 
[V:1] A4c4 | 
[V:2] e4e4 | 
[V:3] c4c4 | 
[V:4] A,,4A,,4 | 
[V:1] c3BA4 | 
[V:2] f4f4 | 
[V:3] c4c4 | 
[V:4] A,4A,4 | 
[V:1] G8 | 
[V:2] e8 | 
[V:3] B8 | 
[V:4] E,8 | 
[V:1] z4G4 | 
[V:2] z4e4 | 
[V:3] z4B4 | 
[V:4] z4E,4 | 
[V:1] E4F4 | 
[V:2] e4d3c | 
[V:3] c4B2A2- | 
[V:4] C,4D,4 | 
[V:1] G4C4 | 
[V:2] B4A4 | 
[V:3] A2G2A2c2- | 
[V:4] E,4A,,4 | 
[V:1] c6B2- | 
[V:2] z2c3de2 | 
[V:3] cBAGA2B2 | 
[V:4] C6G,2 | 
[V:1] BAA4^G2 | 
[V:2] f4e4 | 
[V:3] c2d2B4 | 
[V:4] F,2D,2E,4 | 
[V:1] A4z2c2 | 
[V:2] e4z2c2 | 
[V:3] A4z2A2 | 
[V:4] A,,4z2A,2 | 
[V:1] B4A4 | 
[V:2] d2e2f4 | 
[V:3] B4c4 | 
[V:4] G,4A,4 | 
[V:1] G4z2G2 | 
[V:2] e4z2e2 | 
[V:3] B4z2B2- | 
[V:4] E,4z2E,2- | 
[V:1] G4A4 | 
[V:2] e4f4 | 
[V:3] B2c2c4 | 
[V:4] E,2C,2F,4 | 
[V:1] G4z2G2 | 
[V:2] e4z2e2 | 
[V:3] c4z4 | 
[V:4] C,4z2C,2 | 
[V:1] G8 | 
[V:2] e4e4 | 
[V:3] z8 | 
[V:4] C,8 | 
[V:1] F4E4- | 
[V:2] d4c2B2- | 
[V:3] z8 | 
[V:4] D,4E,4 | 
[V:1] E2DCD4 | 
[V:2] B2AGA4 | 
[V:3] z4A2A2 | 
[V:4] F,8 | 
[V:1] E8- | 
[V:2] B4B4 | 
[V:3] A2^G^F^G4 | 
[V:4] E,8 | 
[V:1] E8 | 
[V:2] c6BA | 
[V:3] A8 | 
[V:4] A,,8 | 
[V:1] E6F2 | 
[V:2] G2A4GF | 
[V:3] z8 | 
[V:4] z8 | 
[V:1] G4A3G | 
[V:2] E4D4 | 
[V:3] z8 | 
[V:4] z8 | 
[V:1] A2D2E4 | 
[V:2] z2d4c2 | 
[V:3] z8 | 
[V:4] z8 | 
[V:1] D4z2d2- | 
[V:2] d3cd2G2 | 
[V:3] z8 | 
[V:4] z8 | 
[V:1] d2c2d2B2- | 
[V:2] A4G3F | 
[V:3] z8 | 
[V:4] z8 | 
[V:1] B2c4BA | 
[V:2] G2A2c4 | 
[V:3] z8 | 
[V:4] z8 | 
[V:1] G4z4 | 
[V:2] B4z4 | 
[V:3] z4B4 | 
[V:4] E,4E,4 | 
[V:1] z8 | 
[V:2] z8 | 
[V:3] B4A4 | 
[V:4] D,4F,4 | 
[V:1] z8 | 
[V:2] z8 | 
[V:3] c4B4 | 
[V:4] E,4D,2G,2- | 
[V:1] z8 | 
[V:2] z8 | 
[V:3] A4G2c2- | 
[V:4] G,2F,2E,2D,C, | 
[V:1] z8 | 
[V:2] z8 | 
[V:3] c2B2c2A2- | 
[V:4] D,4C,2F,2- | 
[V:1] z8 | 
[V:2] z8 | 
[V:3] A2G2F4 | 
[V:4] F,E,E,4D,2 | 
[V:1] z8 | 
[V:2] z8 | 
[V:3] E4z4 | 
[V:4] E,4z4 | 
[V:1] [M:3/1]G4G4G4 | 
[V:2] [M:3/1]e4e4e4 | 
[V:3] [M:3/1]B4B4c4- | 
[V:4] [M:3/1]E,4E,4C,4 | 
[V:1] A8B4 | 
[V:2] f6e2d4 | 
[V:3] c2B2A4G4 | 
[V:4] F,8G,4 | 
[V:1] c6B2A4 | 
[V:2] c8d4 | 
[V:3] z4A4A4 | 
[V:4] A,6G,2F,4 | 
[V:1] G8z4 | 
[V:2] e8z4 | 
[V:3] B8z4 | 
[V:4] E,8z4 | 
[V:1] G4G4G4 | 
[V:2] e6dcB4 | 
[V:3] B4B4B4 | 
[V:4] E,4E,4E,4 | 
[V:1] A6G2F2E2 | 
[V:2] c4d4B4 | 
[V:3] A8D4 | 
[V:4] A,,4D,8 | 
[V:1] E8D4 | 
[V:2] c4A8 | 
[V:3] E4F8 | 
[V:4] C,4D,8 | 
[V:1] E4z4E4 | 
[V:2] B4z4B4 | 
[V:3] E4z4E4 | 
[V:4] G,4z4G,4 | 
[V:1] E4E4E4 | 
[V:2] c4c4c4 | 
[V:3] G4G4G4 | 
[V:4] C,6D,2E,4 | 
[V:1] G4A4B4 | 
[V:2] c3BA2A4^G2 | 
[V:3] C4z4D4 | 
[V:4] E,4C,4B,,4 | 
[V:1] c6BAG4 | 
[V:2] A4e8 | 
[V:3] E4c4B4 | 
[V:4] A,,8E,4 | 
[V:1] A8^G4 | 
[V:2] d4e8 | 
[V:3] A4B8 | 
[V:4] F,4E,8 | 
[V:1] [M:2/1]A4z2c2 | 
[V:2] [M:2/1]e4z2A2 | 
[V:3] [M:2/1]A8 | 
[V:4] [M:2/1]A,,8 | 
[V:1] B2c4BA | 
[V:2] e4f4 | 
[V:3] z8 | 
[V:4] z8 | 
[V:1] G4z4 | 
[V:2] e4z4 | 
[V:3] z4z2c2 | 
[V:4] z4z2A,,2 | 
[V:1] z8 | 
[V:2] z8 | 
[V:3] B2c2c2BA | 
[V:4] E,2E,2F,4 | 
[V:1] z4z2c2 | 
[V:2] z4z2e2- | 
[V:3] G4z2A2 | 
[V:4] E,4z2A,2- | 
[V:1] B4A4 | 
[V:2] e2e2f4 | 
[V:3] B4c4 | 
[V:4] A,2G,2A,4 | 
[V:1] G4z2A2 | 
[V:2] e4z2c2- | 
[V:3] B2G2z2F2 | 
[V:4] E,4z2F,2- | 
[V:1] G4F4 | 
[V:2] c2c2c4 | 
[V:3] G4A4 | 
[V:4] F,2E,2F,4 | 
[V:1] E4z2F2- | 
[V:2] c4z2A2 | 
[V:3] G4z2F2 | 
[V:4] C,4z2D,2- | 
[V:1] FEE4D2 | 
[V:2] B2c2A3B | 
[V:3] D2E2F4 | 
[V:4] D,2C,2D,4 | 
[V:1] E4z4 | 
[V:2] c4z4 | 
[V:3] E4z4 | 
[V:4] A,,4z4 | 
[V:1] c4c4 | 
[V:2] e4e4 | 
[V:3] E4E4 | 
[V:4] A,,4A,,4 | 
[V:1] B4B4 | 
[V:2] e3dcBe2- | 
[V:3] G4G4 | 
[V:4] E,4E,4 | 
[V:1] A4A4 | 
[V:2] e2dcd4 | 
[V:3] A4A4 | 
[V:4] F,4F,4 | 
[V:1] G4z2G2 | 
[V:2] e2B2B2AG | 
[V:3] B2G2G2FE | 
[V:4] E,4z2E,2 | 
[V:1] G2FEG2C2 | 
[V:2] B2E2B2G2 | 
[V:3] G2C2z2c2- | 
[V:4] E,8 | 
[V:1] z2c4BA | 
[V:2] c4c4 | 
[V:3] cBAGA4 | 
[V:4] A,,8 | 
[V:1] B2E2G4 | 
[V:2] B2e3de2 | 
[V:3] G2c4B2 | 
[V:4] E,8 | 
[V:1] F4E4- | 
[V:2] c4c4 | 
[V:3] A4G4 | 
[V:4] F,4C,4 | 
[V:1] E2DCD4 | 
[V:2] A8 | 
[V:3] F8 | 
[V:4] D,8 | 
[V:1] E8- | 
[V:2] B6E2 | 
[V:3] E8- | 
[V:4] z4E,4- | 
[V:1] E8- | 
[V:2] B4c4 | 
[V:3] E8- | 
[V:4] E,4A,,4 | 
[V:1] E8 |]  
[V:2] B8 |]  
[V:3] E8 |]  
[V:4] E,8 |]  



